X:969
T:Baptist Johnston
T:Planxty Johnston
R:Other
O:Ireland
C:Turlough Carolan
B:O'Neill's 656
B:The Complete Works of O'Carolan
S:The Complete Works of O'Carolan
Z:Transcription, chords:Mike Long
M:6/8
L:1/8
K:C
G|\
"C"c2c "G"{c}B2A|"C"G2F E2G|"G"D2G "C"C2c|\
"G"{c}B2A G3|"C"e2d c2d|e2f g2a|g2e c2d|"G"B2c d2e|
dBG dBG|"Am"A2B c2d|"C"c2E "G"DcB|\
[1 "C"c3 c2:|[2 "C"c3 c3|:"C"gef g2c|"G"B2c dab|
"Am"c'2a "G"b2g|"F"a2f def|"C"g2g g>ag|\
e2e efe|c>dc B2c|"G"dBG GAB|"C"cBA "G"GFE|
"F"F3 F2c|"G"d2d ded|dBG G2f|\
"C"ege "F"faf|"C"ege "G"fdf|"C"ece "G"dBG|"C"c3 c3:|
